_includes/icons/color-jcb.svg

<svg fill="#666" height="50" viewBox="0 0 48 48" width="50" xmlns="http://www.w3.org/2000/svg"><path d="m45 35c0 2.210938-1.789062 4-4 4h-34c-2.210937 0-4-1.789062-4-4v-22c0-2.210937 1.789063-4 4-4h34c2.210938 0 4 1.789063 4 4z" fill="#cfd8dc"/><path d="m10.667969 13c-2.089844 0-3.667969 1.324219-3.667969 3.617188v18.382812h6.484375c1.628906 0 3.515625-1.53125 3.515625-3.515625v-18.484375z" fill="#3f51b5"/><path d="m22.667969 13c-2.089844 0-3.667969 1.324219-3.667969 3.617188v18.382812h6.484375c1.628906 0 3.515625-1.53125 3.515625-3.515625v-18.484375z" fill="#e53935"/><path d="m34.667969 13c-2.089844 0-3.667969 1.324219-3.667969 3.617188v18.382812h6.484375c1.628906 0 3.515625-1.53125 3.515625-3.515625v-18.484375z" fill="#388e3c"/><g fill="#fafafa"><path d="m15.804688 24.453125c0 1.835938-2.367188 2.804688-4.101563 2.804688-1.882812 0-3.566406-1.121094-3.925781-2.546875h1.277344c.148437.867187 1.019531 1.476562 1.984375 1.476562 1.070312 0 1.835937-.765625 1.835937-1.734375v-3.308594h2.929688z"/><path d="m38.605469 24.039063c.761719 0 1.296875-.761719 1.296875-1.519532 0-.761718-.664063-1.421875-1.425781-1.421875h-6.261719v5.851563h6.390625c.863281 0 1.523437-.757813 1.523437-1.519531 0-.757813-.660156-1.390625-1.523437-1.390625zm-3.953125-2.332032h1.976562c.503907 0 .960938.453125.960938.957032 0 .511718-.457031.96875-.960938.96875h-1.976562zm2.027344 4.636719h-2.027344v-1.929687h2.027344c.507812 0 .964843.457031.964843.964843 0 .507813-.457031.964844-.964843.964844z"/><path d="m27.8125 22.175781c-1.167969-.269531-2.289062-.425781-2.847656-.425781-1.21875 0-2.179688 1.015625-2.179688 2.300781 0 1.292969.960938 2.3125 2.179688 2.3125.558594 0 1.679687-.105468 2.847656-.378906v1.019531h-4.875c-1.523437 0-2.792969-1.34375-2.792969-2.953125 0-1.605468 1.269532-2.945312 2.792969-2.945312h4.875z"/></g></svg>

<svg xmlns="http://www.w3.org/2000/svg" viewBox="0 0 48 48" width="50" height="50" fill="#666"><path d="M 45 35 C 45 37.210938 43.210938 39 41 39 L 7 39 C 4.789063 39 3 37.210938 3 35 L 3 13 C 3 10.789063 4.789063 9 7 9 L 41 9 C 43.210938 9 45 10.789063 45 13 Z" fill="#cfd8dc"/><path d="M 10.667969 13 C 8.578125 13 7 14.324219 7 16.617188 L 7 35 L 13.484375 35 C 15.113281 35 17 33.46875 17 31.484375 L 17 13 Z" fill="#3f51b5"/><path d="M 22.667969 13 C 20.578125 13 19 14.324219 19 16.617188 L 19 35 L 25.484375 35 C 27.113281 35 29 33.46875 29 31.484375 L 29 13 Z" fill="#e53935"/><path d="M 34.667969 13 C 32.578125 13 31 14.324219 31 16.617188 L 31 35 L 37.484375 35 C 39.113281 35 41 33.46875 41 31.484375 L 41 13 Z" fill="#388e3c"/><path d="M 15.804688 24.453125 C 15.804688 26.289063 13.4375 27.257813 11.703125 27.257813 C 9.820313 27.257813 8.136719 26.136719 7.777344 24.710938 L 9.054688 24.710938 C 9.203125 25.578125 10.074219 26.1875 11.039063 26.1875 C 12.109375 26.1875 12.875 25.421875 12.875 24.453125 L 12.875 21.144531 L 15.804688 21.144531 Z" fill="#fafafa"/><path d="M 38.605469 24.039063 C 39.367188 24.039063 39.902344 23.277344 39.902344 22.519531 C 39.902344 21.757813 39.238281 21.097656 38.476563 21.097656 L 32.214844 21.097656 L 32.214844 26.949219 L 38.605469 26.949219 C 39.46875 26.949219 40.128906 26.191406 40.128906 25.429688 C 40.128906 24.671875 39.46875 24.039063 38.605469 24.039063 Z M 34.652344 21.707031 L 36.628906 21.707031 C 37.132813 21.707031 37.589844 22.160156 37.589844 22.664063 C 37.589844 23.175781 37.132813 23.632813 36.628906 23.632813 L 34.652344 23.632813 Z M 36.679688 26.34375 L 34.652344 26.34375 L 34.652344 24.414063 L 36.679688 24.414063 C 37.1875 24.414063 37.644531 24.871094 37.644531 25.378906 C 37.644531 25.886719 37.1875 26.34375 36.679688 26.34375 Z" fill="#fafafa"/><path d="M 27.8125 22.175781 C 26.644531 21.90625 25.523438 21.75 24.964844 21.75 C 23.746094 21.75 22.785156 22.765625 22.785156 24.050781 C 22.785156 25.34375 23.746094 26.363281 24.964844 26.363281 C 25.523438 26.363281 26.644531 26.257813 27.8125 25.984375 L 27.8125 27.003906 L 22.9375 27.003906 C 21.414063 27.003906 20.144531 25.660156 20.144531 24.050781 C 20.144531 22.445313 21.414063 21.105469 22.9375 21.105469 L 27.8125 21.105469 Z" fill="#fafafa"/></svg>
